!!!OTL: Das Maedchen aus der Fremde.
!!!OTL-incipit: IN EINEM THAL BEI ARMEN HIRTEN
!!!COM: J. Fr. Reichardt
!!!ARE: Europa, Mitteleuropa, Deutschland
!!!SCT: F0303
!!!TXL: @@DE
!!!YEM: Copyright 1995, estate of Helmut Schaffrath.
**kern	**text
*ICvox	*
*clefG2	*
*M4/4	*
*met(c)	*
*k[b-e-]	*
*B-:	*
!LO:TX:a:t=Mäßsig.	!
{8f	1._Jn
8en	ei-
8f	-nem
=1	=1
2b-	Thal
8r	.
8b-/	bei
8a	ar-
8b-/	-men
=2	=2
(8bnL	Hir-
8ccJ)	.
4cc	-ten
8r}	.
{8ee-	erſchien
8dd	.
8cc	mit
=3	=3
(<4b-	je-
16ccqqL	.
16b-qqJ	.
8a)	.
8b-	-dem
(4cc	jun-
8ff)	.
8ee-	-gen
=4	=4
4ee-qq	.
2dd	1._Jahr,
8r}	.
{8dd	ſo-
8ee-	-bald
8ff	die
=5	=5
(4ff	er-
32ggqqL	.
32ffqqJ	.
8ee-)	.
8dd	-ſten
(4ff	Ler-
32ggqqL	.
32ffqqJ	.
8ee-)	.
8dd	-chen
=6	=6
8.ccL	ſchwirrten,
16ee-J	.
4ee-	.
8r}	.
{8ee-	ein
8dd	Mädchen
8cc	.
=7	=7
4.b-	ſchön
8b-	und
(4cc	wun-
8ff)	.
8ee-	-der-
=8	=8
4ee-qq	.
2dd	-bar,
8r}	.
{8ee-	ein
8dd	Mädchen
8cc	.
=9	=9
(4ff	ſchön
!LO:TUP:a	!
12ggL	.
12ee-J)	.
12cc	und
(4b-	wun-
!LO:TUP:a	!
12ddL	.
12ccJ)	.
12b-	-der-
=10	=10
2b-	-bar.
8r}	.
==	==
!!!AGN: Jugend - Lied
!!!ONB: ESAC (Essen Associative Code) Database: FINK
!!!AMT: simple quadruple
!!!AIN: vox
!!!EED: Helmut Schaffrath
!!!EEV: 1.0
!!!RDF**kern: < = below
!!!GTL: Jugendlieder
!!Text: Fr. Schiller
!!!source: Musikalischer Hausschatz der Deutschen. Eine Sammlung von über 1000 Liedern und Gesängen mit Singstimmen und Klavierbegleitung. Leipzig, Litterarisches Verlags-Haus.
!!!page: 181
!!!URL-scan: https://www.digitale-sammlungen.de/en/view/bsb11144622?page=178,179
!!!ENC: Anna Maria Matuszewska
!!!EEV: 2024/07/30
*-	*-
